svgs/duotone/ruler-vertical.svg

<svg xmlns="http://www.w3.org/2000/svg" viewBox="0 0 256 512"><!--! Font Awesome Pro 6.4.2 by @fontawesome - https://fontawesome.com License - https://fontawesome.com/license (Commercial License) Copyright 2023 Fonticons, Inc. --><path class="fa-primary" style="fill:var(--fa-primary-color,inherit);opacity:var(--fa-primary-opacity,1);" d="M176 96c-8.8 0-16 7.2-16 16s7.2 16 16 16h80V96H176zM160 208c0 8.8 7.2 16 16 16h80V192H176c-8.8 0-16 7.2-16 16zm16 80c-8.8 0-16 7.2-16 16s7.2 16 16 16h80V288H176zm0 96c-8.8 0-16 7.2-16 16s7.2 16 16 16h80V384H176z"/><path class="fa-secondary" style="fill:var(--fa-secondary-color,inherit);opacity:var(--fa-secondary-opacity,.4);" d="M0 48C0 21.5 21.5 0 48 0H208c26.5 0 48 21.5 48 48V96H176c-8.8 0-16 7.2-16 16s7.2 16 16 16h80v64H176c-8.8 0-16 7.2-16 16s7.2 16 16 16h80v64H176c-8.8 0-16 7.2-16 16s7.2 16 16 16h80v64H176c-8.8 0-16 7.2-16 16s7.2 16 16 16h80v48c0 26.5-21.5 48-48 48H48c-26.5 0-48-21.5-48-48V48z"/></svg>

<svg xmlns="http://www.w3.org/2000/svg" viewBox="0 0 256 512"><!--! Font Awesome Pro 6.1.1 by @fontawesome - https://fontawesome.com License - https://fontawesome.com/license (Commercial License) Copyright 2022 Fonticons, Inc. --><defs><style>.fa-secondary{opacity:.4}</style></defs><path class="fa-primary" d="M256 96V128H176C167.2 128 160 120.8 160 112C160 103.2 167.2 96 176 96H256zM160 208C160 199.2 167.2 192 176 192H256V224H176C167.2 224 160 216.8 160 208zM256 288V320H176C167.2 320 160 312.8 160 304C160 295.2 167.2 288 176 288H256zM256 384V416H176C167.2 416 160 408.8 160 400C160 391.2 167.2 384 176 384H256z"/><path class="fa-secondary" d="M0 48C0 21.49 21.49 0 48 0H208C234.5 0 256 21.49 256 48V96H176C167.2 96 160 103.2 160 112C160 120.8 167.2 128 176 128H256V192H176C167.2 192 160 199.2 160 208C160 216.8 167.2 224 176 224H256V288H176C167.2 288 160 295.2 160 304C160 312.8 167.2 320 176 320H256V384H176C167.2 384 160 391.2 160 400C160 408.8 167.2 416 176 416H256V464C256 490.5 234.5 512 208 512H48C21.49 512 0 490.5 0 464V48z"/></svg>
